.local/share/icons/Gruvbox-Plus-Dark/mimetypes/scalable/application-msaccess.svg

<svg width="256" height="256" viewBox="0 0 256 256" fill="none" xmlns="http://www.w3.org/2000/svg">
<g clip-path="url(#clip0)">
<g opacity="0.4" filter="url(#filter0_f)">
<path d="M55.0839 15.5636H155.608L216.009 75.7129L216.011 224.609C216.011 233.52 208.749 240.737 199.838 240.737H55.0838C46.1734 240.737 39 233.564 39 224.654V31.6474C39 22.737 46.1734 15.5636 55.0838 15.5636H55.0839Z" fill="#282828"/>
</g>
<path d="M55.0839 15H155.608L216.009 75.1493L216.011 224.045C216.011 232.956 208.749 240.174 199.838 240.174H55.0838C46.1734 240.174 39 233 39 224.09V31.0838C39 22.1734 46.1734 15 55.0838 15H55.0839Z" fill="#ebdbb2"/>
<path fill-rule="evenodd" clip-rule="evenodd" d="M155.609 22.9787H55.0839C50.58 22.9787 46.9787 26.5799 46.9787 31.0838V224.09C46.9787 228.594 50.5799 232.195 55.0838 232.195H199.838C204.371 232.195 208.032 228.521 208.032 224.046V75.1493L155.609 22.9787ZM155.608 15H55.0839C46.1735 15 39 22.1734 39 31.0838V224.09C39 233 46.1734 240.174 55.0838 240.174H199.838C208.749 240.174 216.011 232.956 216.011 224.045L216.009 75.1493L155.608 15Z" fill="url(#paint0_linear)"/>
<path d="M130.674 68C109.792 71.7255 88.8934 76.6617 68.0072 80.3102C68.0072 112.106 67.991 143.91 68.0072 175.714C88.7842 179.35 109.569 184.21 130.306 188H136.53V68H130.674ZM155.304 84.6026C150.447 84.6552 145.591 85.0561 140.816 85.7161V103.457C154.247 105.485 168.254 105.076 181.204 100.703C183.944 99.5003 187.412 98.002 187.983 94.6694C187.214 90.5997 182.645 89.0731 179.233 87.8016C171.487 85.4367 163.393 84.5256 155.304 84.6026V84.6026ZM187.97 101.57C182.888 105.659 176.331 107.016 170.051 107.943C160.358 109.215 150.504 109.231 140.812 108V126.514C152.92 128.069 165.352 128 177.274 125.186C180.929 124.145 184.984 123.056 187.541 120.015C188.456 113.928 187.655 107.717 187.97 101.574V101.57ZM105.721 105.74C110.504 121.744 115.045 137.828 119.772 153.843C116.48 153.635 113.19 153.382 109.905 153.086C109.031 149.514 108.104 145.943 107.165 142.388C102.784 142.363 98.4044 142.238 94.029 142.015C93.1872 145.4 92.3293 148.769 91.4592 152.138C88.6718 151.926 85.8835 151.728 83.0942 151.543C87.2625 136.5 91.6008 121.517 95.7408 106.473C99.0674 106.23 102.378 106 105.721 105.744V105.74ZM100.35 114.301C99.3952 121.088 97.2544 127.615 95.8137 134.301C98.9541 134.329 102.095 134.341 105.251 134.358C103.624 127.672 101.637 121.076 100.354 114.301L100.35 114.301ZM187.966 124.428C182.916 128.502 176.404 129.855 170.136 130.786C160.405 132.074 150.549 132.099 140.812 130.859V149.385C152.948 150.928 165.425 150.859 177.376 148.016C181.018 146.971 185.069 145.886 187.57 142.833C188.412 136.743 187.683 130.559 187.97 124.428H187.966ZM187.966 147.283C182.888 151.357 176.364 152.73 170.079 153.641C160.367 154.929 150.53 154.954 140.812 153.714C140.812 159.869 140.856 166.012 140.755 172.171C150.953 173.641 161.354 173.612 171.536 172.058C177.088 170.928 183.503 170.114 187.541 165.716C188.44 159.63 187.671 153.414 187.97 147.283H187.966Z" fill="url(#paint1_linear)"/>
<path opacity="0.25" d="M155.608 17V61.2306C155.608 70.141 162.867 77.1605 171.777 77.1605L216.009 77.1493V75.1493L155.608 17Z" fill="#282828"/>
<path d="M155.608 15V59.2306C155.608 68.141 162.867 75.1605 171.777 75.1605L216.009 75.1493L155.608 15Z" fill="url(#paint2_linear)"/>
</g>
<defs>
<filter id="filter0_f" x="23.8778" y="0.441412" width="207.255" height="255.418" filterUnits="userSpaceOnUse" color-interpolation-filters="sRGB">
<feFlood flood-opacity="0" result="BackgroundImageFix"/>
<feBlend mode="normal" in="SourceGraphic" in2="BackgroundImageFix" result="shape"/>
<feGaussianBlur stdDeviation="7.5611" result="effect1_foregroundBlur"/>
</filter>
<linearGradient id="paint0_linear" x1="39" y1="15" x2="39" y2="240.174" gradientUnits="userSpaceOnUse">
<stop offset="1e-07" stop-color="#fb4934"/>
<stop offset="1" stop-color="#cc241d"/>
</linearGradient>
<linearGradient id="paint1_linear" x1="68" y1="68" x2="68" y2="188" gradientUnits="userSpaceOnUse">
<stop offset="1e-07" stop-color="#fb4934"/>
<stop offset="1" stop-color="#cc241d"/>
</linearGradient>
<linearGradient id="paint2_linear" x1="155.608" y1="15" x2="155.608" y2="75.1605" gradientUnits="userSpaceOnUse">
<stop offset="1e-07" stop-color="#fb4934"/>
<stop offset="1" stop-color="#cc241d"/>
</linearGradient>
<clipPath id="clip0">
<rect width="256" height="256" fill="#ebdbb2"/>
</clipPath>
</defs>
</svg>

<svg width="256" height="256" fill="none" version="1.1" viewBox="0 0 256 256" xmlns="http://www.w3.org/2000/svg">
  <path d="m55.08 15h100.5l60.4 60.15 2e-3 148.9c0 8.911-7.262 16.13-16.17 16.13h-144.8c-8.91 0-16.08-7.174-16.08-16.08v-193c0-8.91 7.173-16.08 16.08-16.08h1e-4z" fill="#ebdbb2"/>
  <path d="m155.6 22.98h-100.5c-4.504 0-8.105 3.601-8.105 8.105v193c0 4.504 3.601 8.105 8.105 8.105h144.8c4.533 0 8.194-3.674 8.194-8.149v-148.9l-52.42-52.17zm-1e-3 -7.979h-100.5c-8.91 0-16.08 7.173-16.08 16.08v193c0 8.91 7.173 16.08 16.08 16.08h144.8c8.911 0 16.17-7.218 16.17-16.13l-2e-3 -148.9-60.4-60.15z" clip-rule="evenodd" fill="url(#paint0_linear)" fill-rule="evenodd"/>
  <path d="m130.7 68c-20.88 3.726-41.78 8.662-62.67 12.31 0 31.8-0.0162 63.6 0 95.4 20.78 3.636 41.56 8.496 62.3 12.29h6.224v-120h-5.856zm24.63 16.6c-4.857 0.0526-9.713 0.4535-14.49 1.114v17.74c13.43 2.028 27.44 1.619 40.39-2.754 2.74-1.203 6.208-2.701 6.779-6.034-0.769-4.07-5.338-5.596-8.75-6.868-7.746-2.365-15.84-3.276-23.93-3.199zm32.67 16.97c-5.082 4.089-11.64 5.446-17.92 6.373-9.693 1.272-19.55 1.288-29.24 0.057v18.51c12.11 1.555 24.54 1.486 36.46-1.328 3.655-1.041 7.71-2.13 10.27-5.171 0.915-6.087 0.114-12.3 0.429-18.44v-4e-3zm-82.25 4.17c4.783 16 9.324 32.09 14.05 48.1-3.292-0.208-6.582-0.461-9.867-0.757-0.874-3.572-1.801-7.143-2.74-10.7-4.381-0.025-8.761-0.15-13.14-0.373-0.8418 3.385-1.7 6.754-2.57 10.12-2.787-0.212-5.576-0.41-8.365-0.595 4.168-15.04 8.507-30.03 12.65-45.07 3.327-0.243 6.637-0.473 9.98-0.729v-4e-3zm-5.371 8.561c-0.9548 6.787-3.096 13.31-4.536 20 3.14 0.028 6.281 0.04 9.437 0.057-1.627-6.686-3.614-13.28-4.897-20.06h-4e-3zm87.62 10.13c-5.05 4.074-11.56 5.427-17.83 6.358-9.731 1.288-19.59 1.313-29.32 0.073v18.53c12.14 1.543 24.61 1.474 36.56-1.369 3.642-1.045 7.693-2.13 10.19-5.183 0.842-6.09 0.113-12.27 0.4-18.4h-4e-3zm0 22.86c-5.078 4.074-11.6 5.447-17.89 6.358-9.712 1.288-19.55 1.313-29.27 0.073 0 6.155 0.044 12.3-0.057 18.46 10.2 1.47 20.6 1.441 30.78-0.113 5.552-1.13 11.97-1.944 16-6.342 0.899-6.086 0.13-12.3 0.429-18.43h-4e-3z" fill="url(#paint1_linear)"/>
  <path d="m155.6 17v44.23c0 8.91 7.259 15.93 16.17 15.93l44.23-0.0112v-2l-60.4-58.15z" fill="#282828" opacity=".25"/>
  <path d="m155.6 15v44.23c0 8.91 7.259 15.93 16.17 15.93l44.23-0.0112-60.4-60.15z" fill="url(#paint2_linear)"/>
  <defs>
    <linearGradient id="paint0_linear" x1="39" x2="39" y1="15" y2="240.2" gradientUnits="userSpaceOnUse">
      <stop stop-color="#fb4934" offset="1e-7"/>
      <stop stop-color="#cc241d" offset="1"/>
    </linearGradient>
    <linearGradient id="paint1_linear" x1="68" x2="68" y1="68" y2="188" gradientUnits="userSpaceOnUse">
      <stop stop-color="#fb4934" offset="1e-7"/>
      <stop stop-color="#cc241d" offset="1"/>
    </linearGradient>
    <linearGradient id="paint2_linear" x1="155.6" x2="155.6" y1="15" y2="75.16" gradientUnits="userSpaceOnUse">
      <stop stop-color="#fb4934" offset="1e-7"/>
      <stop stop-color="#cc241d" offset="1"/>
    </linearGradient>
  </defs>
</svg>
